X: 121771
T: Lamplighter
S: B.Breathnach:"Ceol Rince na hEireann" IV/158 (gan ainm) 
Z: B.Black
L: 1/8
M: 4/4
R: reel
K: C
(3GAB |: c2 Bc AE E2|c2 Bc dfed|(3cBA (3BAG AE E2|\
A,DDE FGAB :|
cdef g^fge|cege dBGB|cdef g2 ^fg|afge dBGB|
cdef g^fge|cege dBGB|cBAG ABcd|efge dfed ||
